X:1
T:The Supreme Sacrifice, 10.10.10.10
T:Charles Harris, 1919
T:The Supreme Sacrifice, 10.10.10.10
T:Public Domain
C:Charles Harris, 1919
Z:Public Domain
%%score ( 1 2 ) 3
L:1/8
M:4/2
K:Eb
V:1 treble 
V:2 treble 
V:3 bass 
V:1
 [EG]4 [EG]3 [EB] [EB]6 [B,E]2 | [B,E]2 [B,D]2 [B,D]3 [CE] [B,F]8 | [DA]4 [DA]3 [Dc] [Dc]6 [DA]2 | %3
 [EA]2 [EG]2 [EG]3 [EA] [EB]8 | [GB]4 [Gc]2 [Gd]2 E4 z2 d2 x2 | %5
!>(! [Ed]2!>)! [Ec]2!>(! [=Ec]3!>)! [EG]!>(! [FA]8!>)! | %6
"^legato" z2 [_EF]2 [EG]2 [EA]2 [EG]2 E2 [EF]2 [EG]2 |"^poco rit." E4 E2 E2 E8 |] %8
V:2
 x16 | x16 | x16 | x16 | x8 e6 E4 | x16 | x10 E2 x4 | F6 E2 E8 |] %8
V:3
 [E,B,]4 [E,B,]3 [G,B,] [G,B,]6 [G,B,]2 | [F,A,]2 [F,A,]2 [F,A,]3 [E,A,] [D,A,]8 | %2
 [F,B,]4 [F,B,]3 [A,B,] [A,B,]6 [F,B,]2 | [E,B,]2 [E,B,]2 [E,B,]3 [F,B,] [G,B,]8 | %4
 [E,B,]4 [D,B,]2 [D,B,]2 [C,G,]4 [B,,G,]4 x2 | %5
!>(! [A,,A,]2!>)! [A,,A,]2!>(! [G,,B,]3!>)! [G,,B,]!>(! [F,,C]8!>)! | %6
"^dim." z2 [A,C]2 [G,C]2 [F,C]2 [B,,B,]2 [B,,G,]2 [B,,A,]2 [B,,B,]2 | [B,,A,]4 [B,,A,]4 [E,G,]8 |] %8

